X:4
T:Les Esclops
C:Trad.
A:Massifs montagneux - France
B:Répertoire "Pays-Gavot"
G:Accordion
%%MIDI program 21 %Accordian
M:3/8
L:1/8
Q:200
K:G
 z2D |: "Sol M (G)"[G2G,,2][GG,] | [GG,,]D[GG,] | [B2G,,2][BG,] | [BG,,]G[BG,] | [d2G,,2][dG,] | \
 [dG,,]c[BG,] | [BG,,]A[GG,] | "Ré M (D)"[A2D,,2][AD,] | [A2D,,2][cD,] | "Do M (C)"[cC,,]e[cC,] | \
 "Sol M (G)"[BG,,]d[BG,] | "Ré M (D)"[A2D,,2][AD,] | "Sol M (G)"[d2G,,2][dG,] | "Do M (C)"[cC,,]e[cC,] | \
 "Sol M (G)"[BG,,]d[BG,] | "Ré M (D)"[A2D,,2][dD,] |1 "Sol M (G)"[G2G,,2][GG,] | [G2G,,2][DG,] :|3 G3 | \
K:C
W:1. Diço bergero,
W:Diço, bergero,
W:Cant te cousterou
W:Lois esclots ?
W:Canterou, canterou, canterou nô ?
W:Canterou, canterou, canterou nô ?
W:
W:2. Quant te coustéron (ter)
W:   Tis esclop ?
W: Cant éron (ter)
W:   Nou
W: Cant éron (ter)
W:   Nou
W:
W:3. Cinq sou coustéron...
W:   Mis esclop
W:
W:4. Cinq de tacheto...
W:   A mis esclop
W:
W:5. Cinq de courrejo...
W:
W:6. Cinq de ligneto...
W:
W:7. Bourda de rouge...
W:
W:8. La ganso verdo...
W:
W:9. Passant sus la glaço
W:   Mis esclop
W:Faguéron
W:   Clo, Clo !

